local/share/icons/dracula-icons-main/16/actions/minuet-chords.svg

<?xml version="1.0" encoding="UTF-8"?>
<svg xmlns="http://www.w3.org/2000/svg" xmlns:xlink="http://www.w3.org/1999/xlink" width="16" height="16" viewBox="0 0 16 16">
<path fill-rule="nonzero" fill="rgb(100%, 100%, 100%)" fill-opacity="1" d="M 9.011719 2.007812 L 9.011719 2.785156 C 8.898438 2.722656 8.773438 2.671875 8.648438 2.632812 L 8.640625 2.628906 C 7.585938 2.3125 6.472656 2.910156 6.152344 3.964844 C 6.148438 3.980469 6.144531 3.992188 6.140625 4.007812 L 2.011719 4.007812 L 2.011719 5.007812 L 6.125 5.007812 C 6.289062 5.695312 6.804688 6.246094 7.484375 6.453125 C 7.585938 6.484375 7.6875 6.507812 7.792969 6.519531 C 7.019531 6.625 6.378906 7.171875 6.152344 7.917969 C 6.144531 7.949219 6.136719 7.976562 6.128906 8.007812 L 2.011719 8.007812 L 2.011719 9.007812 L 6.132812 9.007812 C 6.3125 9.675781 6.824219 10.207031 7.484375 10.40625 C 7.585938 10.4375 7.6875 10.460938 7.789062 10.472656 C 7.019531 10.578125 6.378906 11.125 6.152344 11.871094 C 6.136719 11.917969 6.125 11.960938 6.117188 12.007812 L 2.011719 12.007812 L 2.011719 13.007812 L 6.144531 13.007812 C 6.335938 13.65625 6.835938 14.164062 7.484375 14.363281 C 8.539062 14.683594 9.65625 14.085938 9.976562 13.03125 L 9.980469 13.007812 L 14.011719 13.007812 L 14.011719 12.007812 L 10.011719 12.007812 L 10.011719 9.007812 L 14.011719 9.007812 L 14.011719 8.007812 L 10.011719 8.007812 L 10.011719 5.007812 L 14.011719 5.007812 L 14.011719 4.007812 L 10.011719 4.007812 L 10.011719 2.007812 Z M 8.070312 3.5625 C 8.15625 3.5625 8.242188 3.574219 8.324219 3.597656 L 8.351562 3.605469 C 8.867188 3.761719 9.15625 4.304688 9.003906 4.820312 C 8.851562 5.335938 8.308594 5.632812 7.789062 5.484375 C 7.273438 5.332031 6.976562 4.792969 7.121094 4.273438 C 7.242188 3.851562 7.628906 3.558594 8.070312 3.5625 Z M 9.011719 6.296875 L 9.011719 6.738281 C 8.898438 6.675781 8.773438 6.625 8.648438 6.585938 L 8.640625 6.582031 C 8.542969 6.554688 8.441406 6.53125 8.339844 6.519531 C 8.574219 6.484375 8.804688 6.410156 9.011719 6.296875 Z M 8.070312 7.515625 C 8.15625 7.515625 8.242188 7.527344 8.324219 7.550781 L 8.351562 7.558594 C 8.867188 7.714844 9.15625 8.261719 9.003906 8.777344 C 8.847656 9.292969 8.308594 9.585938 7.789062 9.4375 C 7.273438 9.285156 6.976562 8.746094 7.121094 8.226562 C 7.242188 7.804688 7.628906 7.515625 8.070312 7.515625 Z M 9.011719 10.253906 L 9.011719 10.695312 C 8.898438 10.632812 8.773438 10.578125 8.648438 10.539062 L 8.640625 10.539062 C 8.542969 10.507812 8.441406 10.488281 8.335938 10.472656 C 8.574219 10.441406 8.804688 10.367188 9.011719 10.253906 Z M 8.070312 11.472656 C 8.15625 11.472656 8.242188 11.484375 8.324219 11.507812 L 8.351562 11.511719 C 8.867188 11.671875 9.160156 12.214844 9.003906 12.730469 C 8.847656 13.246094 8.308594 13.542969 7.789062 13.390625 C 7.273438 13.242188 6.976562 12.699219 7.121094 12.179688 C 7.242188 11.757812 7.628906 11.46875 8.070312 11.472656 Z M 8.070312 11.472656 "/>
</svg>

<?xml version="1.0" encoding="UTF-8" standalone="no"?>
<!-- Created with Inkscape (http://www.inkscape.org/) -->
<svg id="svg4337" xmlns:rdf="http://www.w3.org/1999/02/22-rdf-syntax-ns#" xmlns="http://www.w3.org/2000/svg" height="16" viewBox="0 0 16 16" width="16" version="1.1" xmlns:cc="http://creativecommons.org/ns#" xmlns:dc="http://purl.org/dc/elements/1.1/">
 <defs id="defs4339">
  <style id="current-color-scheme" type="text/css">.ColorScheme-Text {
        color:#FFFFFF;
      }</style>
 </defs>
 <metadata id="metadata4342">
  <rdf:RDF>
   <cc:Work rdf:about="">
    <dc:format>image/svg+xml</dc:format>
    <dc:type rdf:resource="http://purl.org/dc/dcmitype/StillImage"/>
    <dc:title/>
   </cc:Work>
  </rdf:RDF>
 </metadata>
 <g id="layer1" transform="translate(0,0)">
  <path id="rect4179" class="ColorScheme-Text" style="fill:currentColor" d="m9.0132 2.0086v0.77734c-0.1163-0.0634-0.2387-0.1151-0.3652-0.1543l-0.0078-0.00195c-1.0554-0.31796-2.1689 0.279-2.4883 1.334-0.00408 0.014928-0.00799 0.029903-0.011719 0.044922h-4.127v1h4.1113c0.16494 0.68865 0.68212 1.2385 1.3594 1.4453 0.10095 0.030241 0.20414 0.052446 0.30859 0.066407-0.77304 0.10576-1.4138 0.6519-1.6406 1.3984-0.00851 0.029762-0.016322 0.059719-0.023437 0.089844h-4.1152v1h4.1211c0.17753 0.66831 0.68803 1.1973 1.3496 1.3984 0.10031 0.03014 0.20284 0.05235 0.30664 0.06641-0.7723 0.10647-1.4121 0.65248-1.6387 1.3984-0.013326 0.04514-0.025052 0.09075-0.035156 0.13672h-4.1035v1h4.1328c0.1886 0.64826 0.69186 1.1574 1.3379 1.3535 1.0555 0.32079 2.1712-0.27466 2.4922-1.3301l0.0059-0.02344h0.03125 4v-1h-4v-3h4v-1h-4v-3h4v-1h-4v-2zm-0.9433 1.5527c0.08655 0.00101 0.17259 0.013491 0.25586 0.037109l0.02539 0.00586c0.5148 0.1574 0.8061 0.7008 0.6523 1.2168-0.1533 0.5168-0.6953 0.8126-1.2129 0.6621-0.5172-0.1508-0.8156-0.6909-0.668-1.209 0.1198-0.4234 0.5072-0.715 0.9473-0.7129zm0.94336 2.7363v0.44141c-0.1164-0.0634-0.2388-0.1151-0.3653-0.1543l-0.0078-0.00195c-0.0985-0.0292-0.199-0.0507-0.3008-0.0645 0.236-0.0328 0.4642-0.1075 0.6738-0.2207zm-0.94336 1.2188c0.08646 0.0003772 0.1725 0.012199 0.25586 0.035157l0.02539 0.00781c0.5148 0.1574 0.8061 0.7008 0.6523 1.2167-0.1542 0.5161-0.6959 0.8109-1.2129 0.6602-0.5172-0.1508-0.8156-0.6909-0.668-1.209 0.1206-0.4226 0.5078-0.7132 0.9473-0.7109zm0.94336 2.7363v0.44141c-0.1164-0.063-0.2388-0.115-0.3653-0.154l-0.0078-0.0019c-0.09909-0.02928-0.20031-0.05083-0.30273-0.06445 0.23664-0.03257 0.46553-0.10732 0.67578-0.2207zm-0.94336 1.2188c0.08646 0.000378 0.1725 0.0122 0.25586 0.03516l0.02539 0.0059c0.51584 0.15744 0.80742 0.70219 0.65234 1.2188-0.1542 0.515-0.6959 0.81-1.2129 0.659-0.5172-0.15-0.8156-0.69-0.668-1.209 0.1206-0.422 0.5078-0.713 0.9473-0.71z"/>
 </g>
</svg>
